X: 41953
T: Walking Stick, The
R: mazurka
M: 3/4
K: Dmajor
|:(3ABA|d2 f2 ag|ba B2 (3gag|fe Ac eg|fd F2 (3ABA|d2 f2 ag|
ba B2 (3gag|fe Ac ec|d2d2:|:AF||D2 (3FGA df|a2 ge (3Acd|g2 fd (3ABd|
f2 dAFE|D2 (3FGA df|a2 ge (3Acd|g2 fdAd|FA d2:|:AG|
FEDFAd|f2 afge|B2 gefd|ecAGFE|FEDFAd|
f2 afga|b2 Acec|d6:|

